X: 1
T: Southwind
T: An Ghaoth Aneas
R: waltz
%S: s:2 b:19(9+10)
O: Trad
R: waltz
Z: John Chambers <jc:trillian.mit.edu>
M: 3/4
L: 1/4
%Q: 30
K: G
"^A"|: c \
| "G"B>AG | Bcd | "Am"A2A | "D7"A2c \
| "G"B>AG | "C"EDE | "C"G2G | "G"G2  "^B":: d | "G(C)"g2g |
| "C"g>fe | "G"d2d | "D7"d2c | "G"B>AG |\
[1 "Em"Bcd | "A7"A2A | "D7"ABd :|[2 "D7"A<cF | "C"G2G | "G"G2 |]
